svgs/sharp-light/peseta-sign.svg

<svg xmlns="http://www.w3.org/2000/svg" viewBox="0 0 384 512"><!--! Font Awesome Pro 6.6.0 by @fontawesome - https://fontawesome.com License - https://fontawesome.com/license (Commercial License) Copyright 2024 Fonticons, Inc. --><path d="M48 32L32 32l0 16 0 112L0 160l0 32 32 0 0 112 0 160 0 16 32 0 0-16 0-144 144 0c74.1 0 135.2-56 143.1-128l32.9 0 0-32-32.9 0c-8-72-69-128-143.1-128L48 32zM318.9 160L64 160l0-96 144 0c56.4 0 103.1 41.7 110.9 96zM64 192l254.9 0c-7.8 54.3-54.4 96-110.9 96L64 288l0-96z"/></svg>

<svg xmlns="http://www.w3.org/2000/svg" viewBox="0 0 384 512"><!--! Font Awesome Pro 6.5.2 by @fontawesome - https://fontawesome.com License - https://fontawesome.com/license (Commercial License) Copyright 2024 Fonticons, Inc. --><path d="M48 32H32V48 160H0v32H32V304 464v16H64V464 320H208c74.1 0 135.2-56 143.1-128H384V160H351.1c-8-72-69-128-143.1-128H48zM318.9 160H64V64H208c56.4 0 103.1 41.7 110.9 96zM64 192H318.9c-7.8 54.3-54.4 96-110.9 96H64V192z"/></svg>
